!!!OTL: Female Sailor Bold
!!!ONM: 34.
**kern
*clefG2
*k[b-]
*F:
*M6/8
*MM92
{4c
=1
4.f
4f
8g
=2
4.a
4a
8f
=3
8g
4f
4f
8e
=4
4.f
4r}
{8a
=5
4cc
8cc
4cc
8cc
=6
4dd
8dd
4cc
8cc
=7
4dd
8dd
4cc
8a
=8
4.g
4r}
{8a
=9
4.cc
4cc
8a
=10
4cc
8cc
4cc
8c
=11
4c
8c
4f
8g
=12
4.a
4r}
{8f
=13
4c
8c
4f
8g
=14
4a
8a
4a
8g
=15
4g
8g
4f
8e
=16
4.f
4r
8r}
==
*-
!!!CNT: Folksongs of Maritime Canada
!!!MRD: 1928///-1932///
!!!OCL: Helen Creighton
!!!YOR: Songs and Ballads from Nova Scotia
!!!PPR: J.M. Dent & Sons, Limited
!!!PPP: Toronto, Canada
!!!PDT: 1932///
!!!reprint: Dover Publications, 1992: ISBN 0-486-21703-5
!!!ENC1: Craig Stuart Sapp (music and bibliographic data)                       
!!!ENC2: Marcus Pearce (phrase markings and key designations)                   
!!!ENC3: Darrell Conklin (phrase markings and key designations)   
!!!END: 2002/04/10/
!!!EEV: 2004/06/05
!!!MPN: Mr. Ben Henneberry
!!!PPG: 68
!!!EFL: 34/152
!!!ARE: Canada; Nova Scotia
!!!verses: 12
!!!VTS: 608651694
